X:1
T:Title
%%score { ( 1 3 ) | ( 2 4 ) }
L:1/8
Q:1/4=116
M:4/4
K:Eb
V:1 treble nm="Grand Piano"
V:3 treble 
V:2 bass 
V:4 bass 
V:1
 E2 E2 G2 G2 | [GB]2 [GB]2 [B,EG]4 | [DF]2 z2 [EG]2 z2 | [GB]2 [B,FA]2 G4 | E2 E2 G2 G2 | %5
w: Asa~Hull * * *|||||
 [GB]2 [GB]2 [EG]4 | [Ee]4 =A2 A2 | [DB]6 z2 | [FA]3 [FA] [FA]2 [FA]2 | [FA]2 G2 G4 | c3 c c2 c2 | %11
w: ||||||
 [Ac]2 [GB]2 [GB]4 | [Ac]2 [Bd]2 [ce]2 [Ac]2 |[M:5/4] [GB]2 [EG]2 [Ge]6 | %14
w: |||
[M:4/4] [EAc]4 [DF]2 [DB]2 | E6 z2 |] %16
w: ||
V:2
 [E,G,]2 [E,G,]2 [E,B,E]2 [E,B,E]2 | [E,E]2 [E,E]2 E,4 | B,,2 z2 B,,2 z2 | B,,2 B,,2 [E,B,E]4 | %4
 [E,G,]2 [E,G,]2 [E,B,E]2 [E,B,E]2 | [E,E]2 [E,E]2 [E,B,]4 | C4- [F,CE]2 [F,CE]2 | [B,,B,]6 z2 | %8
 [B,,B,]3 [B,,B,] [B,,B,]2 [B,,B,]2 | [E,B,]2 [E,B,E]2 [E,B,E]4 | [A,E]3 [A,EA] [A,EA]2 [A,EA]2 | %11
 [E,E]2 [E,E]2 [E,E]4 | [A,E]2 [A,E]2 [A,E]2 [A,E]2 |[M:5/4] [E,E]2 [E,B,]2 [E,B,]6 | %14
[M:4/4] [A,,A,]4 [B,,A,]2 [B,,A,]2 | [E,G,]6 z2 |] %16
V:3
 x8 | x8 | B,8- | B,2 z2 z4 | x8 | x8 | x8 | x8 | x8 | x8 | x8 | x8 | x8 |[M:5/4] x10 |[M:4/4] x8 | %15
 x8 |] %16
V:4
 x8 | x8 | x8 | x8 | x8 | x8 | C,4 z4 | x8 | x8 | x8 | x8 | x8 | x8 |[M:5/4] x10 |[M:4/4] x8 | %15
 x8 |] %16

